X:1
T:Title
%%score ( 1 2 )
L:1/4
M:2/2
I:linebreak $
K:G
V:1 treble nm="Voice" snm="Voice"
V:2 treble 
L:1/8
V:1
 F e | f a a b | a f2 d/e/ | f f e d x | a f2 d/e/ |$ e4 | B2 B3/2 A/ | B d e d x | [Ac]2 =f e | %9
 [=FFB]2 B3/2 A/ | B d2 e | =f f e e | d3/2 |] %13
V:2
 x4 | x8 | x8 | x6 [Fe]4 | x8 |$ x8 | x8 | x6 =F4 | x8 | x8 | x8 | x8 | x3 |] %13
